X: 33826
T: Reaping The Rye
R: slip jig
M: 9/8
K: Eminor
BcB B2A GFE|EFG Bge f2e|
BcB B2A GFE|EFG Bed e3:|
BcB efg f2e|AcA efg f2e|
BcB efg f2e|BcB B2A G2A|
BcB efg f2e|AcA efg f2e|
AcA efg fga|bag agf gfe|
efg agf e3|

